PortableApps/LibreOfficePortable/App/libreoffice/help/media/icon-themes/cmd/sc_textattributes.svg

<svg viewBox="0 0 16 16" xmlns="http://www.w3.org/2000/svg"><path d="m6.8984375 0-5.8984375 16h1.6875c.1834758 0 .3391615-.052671.4667969-.158203.1356127-.10553.2275286-.227234.2753906-.365235l1.328125-4.048828h6.4843755l1.339843 4.060547c.063817.146119.151987.267815.263672.365235.119657.097408.275343.146484.466797.146484h1.6875l-5.8867188-16zm1.1015625 2.09375c.0717949.3003552.1467904.5800771.2265625.8398438.079772.2597666.1604624.4887688.2402344.6835937l2.3632811 6.6679685h-5.7109374l2.4140625-6.6562498c.071795-.194825.1467904-.4218741.2265625-.6816406s.1604623-.5450427.2402344-.8535156z" fill="#696969"/><g fill="#eac282"><rect height="1" ry=".5" width="3"/><rect height="3" rx=".5" width="1"/><path d="m.4999293 4.5 4-4v4z" fill-rule="evenodd" stroke="#eac282" stroke-linecap="round" stroke-linejoin="round"/></g></svg>

<svg viewBox="0 0 16 16" xmlns="http://www.w3.org/2000/svg">
  <path
     style="fill:#696969"
     d="M 6.8984375 0 L 1 16 L 2.6875 16 C 2.8709758 16 3.0266615 15.947329 3.1542969 15.841797 C 3.2899096 15.736267 3.3818255 15.614563 3.4296875 15.476562 L 4.7578125 11.427734 L 11.242188 11.427734 L 12.582031 15.488281 C 12.645848 15.6344 12.734018 15.756096 12.845703 15.853516 C 12.96536 15.950924 13.121046 16 13.3125 16 L 15 16 L 9.1132812 0 L 6.8984375 0 z M 8 2.09375 C 8.0717949 2.3941052 8.1467904 2.6738271 8.2265625 2.9335938 C 8.3063345 3.1933604 8.3870249 3.4223626 8.4667969 3.6171875 L 10.830078 10.285156 L 5.1191406 10.285156 L 7.5332031 3.6289062 C 7.6049981 3.4340812 7.6799935 3.2070321 7.7597656 2.9472656 C 7.8395377 2.6874991 7.9202279 2.4022229 8 2.09375 z "
     />
  <g
     style="fill:#eac282">
    <rect
       y="0"
       x="0"
       height="1"
       ry="0.5"
       width="3"
       />
    <rect
       y="0"
       x="0"
       height="3"
       rx="0.5"
       width="1"
       />
    <path
       style="fill-rule:evenodd;stroke:#eac282;stroke-linecap:round;stroke-linejoin:round"
       inkscape:connector-curvature="0"
       d="m 0.4999293,4.5 4,-4 v 4 z"
       />
  </g>
</svg>
